Glyphs/FunctionalComponents/complex/complex-pdna-specification.svg

<?xml version="1.0" encoding="UTF-8" standalone="no"?>
<svg
   xmlns:dc="http://purl.org/dc/elements/1.1/"
   xmlns:cc="http://creativecommons.org/ns#"
   xmlns:rdf="http://www.w3.org/1999/02/22-rdf-syntax-ns#"
   xmlns:svg="http://www.w3.org/2000/svg"
   xmlns="http://www.w3.org/2000/svg"
   xmlns:sodipodi="http://sodipodi.sourceforge.net/DTD/sodipodi-0.dtd"
   xmlns:inkscape="http://www.inkscape.org/namespaces/inkscape"
   viewBox="0 0 211.55706 87.640237"
   version="1.1"
   xml:space="preserve"
   x="0px"
   y="0px"
   width="2.3506341in"
   height="0.97378045in"
   id="svg2"
   inkscape:version="0.91 r13725"
   sodipodi:docname="complex-pdna-specification.svg"
   inkscape:export-filename="complex-pp-specification.png"
   inkscape:export-xdpi="300"
   inkscape:export-ydpi="300"><metadata
     id="metadata12"><rdf:RDF><cc:Work
         rdf:about=""><dc:format>image/svg+xml</dc:format><dc:type
           rdf:resource="http://purl.org/dc/dcmitype/StillImage" /><dc:title></dc:title></cc:Work></rdf:RDF></metadata><sodipodi:namedview
     pagecolor="#ffffff"
     bordercolor="#666666"
     borderopacity="1"
     objecttolerance="10"
     gridtolerance="10"
     guidetolerance="10"
     inkscape:pageopacity="0"
     inkscape:pageshadow="2"
     inkscape:window-width="1269"
     inkscape:window-height="942"
     id="namedview10"
     showgrid="false"
     units="in"
     inkscape:zoom="4.72"
     inkscape:cx="104.04326"
     inkscape:cy="39.270102"
     inkscape:window-x="0"
     inkscape:window-y="1"
     inkscape:window-maximized="0"
     inkscape:current-layer="svg2"
     fit-margin-top="0.2"
     fit-margin-left="0.2"
     fit-margin-right="0.2"
     fit-margin-bottom="0.2" /><defs
     id="defs4"><style
       type="text/css"
       id="style6"><![CDATA[
      path,circle,polygon {
        stroke:#000000;
        stroke-width: 3;
        stroke-linecap: round;
        stroke-linejoin: round;
        fill: none
      }]]></style><style
       id="style6-7"
       type="text/css"><![CDATA[
      path,circle,polygon {
        stroke:#000000;
        stroke-width: 3;
        stroke-linecap: round;
        stroke-linejoin: round;
        fill: none
      }]]></style><style
       id="style6-2"
       type="text/css"><![CDATA[
      path,circle {
        stroke:#000000;
        stroke-width: 3;
        stroke-linecap: round;
        stroke-linejoin: round;
        fill: none
      }]]></style><style
       id="style6-5"
       type="text/css"><![CDATA[
      path,circle {
        stroke:#000000;
        stroke-width: 3;
        stroke-linecap: round;
        stroke-linejoin: round;
        fill: none
      }]]></style><style
       id="style6-21"
       type="text/css"><![CDATA[
      path,circle {
        stroke:#000000;
        stroke-width: 3;
        stroke-linecap: round;
        stroke-linejoin: round;
        fill: none
      }]]></style><style
       id="style6-6"
       type="text/css"><![CDATA[
      path,circle {
        stroke:#000000;
        stroke-width: 3;
        stroke-linecap: round;
        stroke-linejoin: round;
        fill: none
      }]]></style></defs><g
     id="g4395"
     transform="translate(22.118196,-20.003832)"><rect
       y="38.25383"
       x="-3.8681977"
       height="51.002167"
       width="175.05704"
       id="rect4159"
       style="opacity:0.5;fill:none;fill-opacity:1;stroke:#999999;stroke-width:0.49999994;stroke-miterlimit:4;stroke-dasharray:0.99999988, 0.49999994;stroke-dashoffset:0;stroke-opacity:1" /><path
       style="fill:none;stroke:#000000;stroke-width:3;stroke-linecap:round;stroke-linejoin:round"
       inkscape:connector-curvature="0"
       id="path8"
       d="m 40.198464,40.621063 8.5,7.5 -8.5,7.3333" /><path
       style="fill:none;stroke:#000000;stroke-width:3;stroke-linecap:round;stroke-linejoin:round"
       inkscape:connector-curvature="0"
       id="path10"
       d="m 18.698464,75.121063 0,-27 29,0" /><path
       sodipodi:nodetypes="cc"
       inkscape:connector-curvature="0"
       id="path4182"
       d="m 7.0485424,76.554476 162.9645376,0"
       style="opacity:1;fill:none;fill-opacity:1;stroke:#000000;stroke-width:1.99999976;stroke-linecap:round;stroke-linejoin:round;stroke-miterlimit:4;stroke-dasharray:none;stroke-dashoffset:0;stroke-opacity:1" /><path
       d="m 55.008466,75.847449 26,0 0,-5 c 0,-10 -6,-15 -13,-15 -7,0 -13,5 -13,15 z"
       id="path8-6"
       inkscape:connector-curvature="0"
       style="fill:none;stroke:#000000;stroke-width:3;stroke-linecap:round;stroke-linejoin:round" /><path
       d="m 91.230789,88.146343 23.611171,0 10.87644,-11.40059 -10.87644,-11.40058 -23.611171,0 z"
       id="path8-8"
       inkscape:connector-curvature="0"
       style="fill:#ffffff;stroke:#000000;stroke-width:2.99544764;stroke-linecap:round;stroke-linejoin:round"
       sodipodi:nodetypes="cccccc" /><g
       transform="translate(123.05084,41.016946)"
       id="g4391"><path
         d="m 22.499997,34.989391 0,-24.000001"
         id="path8-0"
         inkscape:connector-curvature="0"
         style="fill:none;stroke:#000000;stroke-width:3;stroke-linecap:round;stroke-linejoin:round" /><path
         d="m 7.4999973,9.9893904 29.9999997,0"
         id="path10-9"
         inkscape:connector-curvature="0"
         style="fill:none;stroke:#000000;stroke-width:3;stroke-linecap:round;stroke-linejoin:round" /></g><rect
       ry="6.9287467"
       y="40.207203"
       x="-3.4083424"
       height="13.857493"
       width="31.759876"
       id="rect4135"
       style="opacity:1;fill:#999999;fill-opacity:1;stroke:#000000;stroke-width:0.99999988;stroke-linecap:butt;stroke-linejoin:miter;stroke-miterlimit:4;stroke-dasharray:none;stroke-dashoffset:0;stroke-opacity:1" /></g></svg>

<?xml version="1.0" encoding="utf-8"?>
<svg viewBox="0 0 211.55706 87.640237" version="1.1" x="0px" y="0px" width="2.3506341in" height="0.97378045in" id="svg2" xmlns="http://www.w3.org/2000/svg">
  <defs id="defs4">
    <style type="text/css" id="style6">
      path,circle,polygon {
        stroke:#000000;
        stroke-width: 3;
        stroke-linecap: round;
        stroke-linejoin: round;
        fill: none
      }</style>
    <style id="style6-7" type="text/css">
      path,circle,polygon {
        stroke:#000000;
        stroke-width: 3;
        stroke-linecap: round;
        stroke-linejoin: round;
        fill: none
      }</style>
    <style id="style6-2" type="text/css">
      path,circle {
        stroke:#000000;
        stroke-width: 3;
        stroke-linecap: round;
        stroke-linejoin: round;
        fill: none
      }</style>
    <style id="style6-5" type="text/css">
      path,circle {
        stroke:#000000;
        stroke-width: 3;
        stroke-linecap: round;
        stroke-linejoin: round;
        fill: none
      }</style>
    <style id="style6-21" type="text/css">
      path,circle {
        stroke:#000000;
        stroke-width: 3;
        stroke-linecap: round;
        stroke-linejoin: round;
        fill: none
      }</style>
    <style id="style6-6" type="text/css">
      path,circle {
        stroke:#000000;
        stroke-width: 3;
        stroke-linecap: round;
        stroke-linejoin: round;
        fill: none
      }</style>
  </defs>
  <g id="g4395" transform="matrix(1, 0, 0, 1, 34.014103, -22.193844)">
    <g>
      <rect y="38.254" x="-27.67" height="51.002" width="198.859" id="rect4159" style="opacity: 0.5; fill: none; fill-opacity: 1; stroke: rgb(153, 153, 153); stroke-width: 0.5; stroke-miterlimit: 4; stroke-dasharray: 1, 0.5; stroke-dashoffset: 0; stroke-opacity: 1;"/>
      <path style="fill:none;stroke:#000000;stroke-width:3;stroke-linecap:round;stroke-linejoin:round" id="path8" d="M 40.198 40.621 L 48.698 48.121 L 40.198 55.454"/>
      <path style="fill:none;stroke:#000000;stroke-width:3;stroke-linecap:round;stroke-linejoin:round" id="path10" d="M 18.698 75.121 L 18.698 48.121 L 47.698 48.121"/>
      <path id="path4182" d="M 7.049 76.554 L 170.013 76.554" style="opacity:1;fill:none;fill-opacity:1;stroke:#000000;stroke-width:1.99999976;stroke-linecap:round;stroke-linejoin:round;stroke-miterlimit:4;stroke-dasharray:none;stroke-dashoffset:0;stroke-opacity:1"/>
      <path d="M 55.008 75.847 L 81.008 75.847 L 81.008 70.847 C 81.008 60.847 75.008 55.847 68.008 55.847 C 61.008 55.847 55.008 60.847 55.008 70.847 Z" id="path8-6" style="fill:none;stroke:#000000;stroke-width:3;stroke-linecap:round;stroke-linejoin:round"/>
      <path d="M 91.231 88.146 L 114.842 88.146 L 125.718 76.746 L 114.842 65.345 L 91.231 65.345 Z" id="path8-8" style="fill:#ffffff;stroke:#000000;stroke-width:2.99544764;stroke-linecap:round;stroke-linejoin:round"/>
      <g transform="matrix(1, 0, 0, 1, 123.050842, 41.016945)" id="g4391">
        <path d="m 22.499997,34.989391 0,-24.000001" id="path8-0" style="fill:none;stroke:#000000;stroke-width:3;stroke-linecap:round;stroke-linejoin:round"/>
        <path d="m 7.4999973,9.9893904 29.9999997,0" id="path10-9" style="fill:none;stroke:#000000;stroke-width:3;stroke-linecap:round;stroke-linejoin:round"/>
      </g>
      <rect ry="6.929" y="56.091" x="-19.872" height="13.857" width="31.76" id="rect4135" style="opacity:1;fill:#999999;fill-opacity:1;stroke:#000000;stroke-width:0.99999988;stroke-linecap:butt;stroke-linejoin:miter;stroke-miterlimit:4;stroke-dasharray:none;stroke-dashoffset:0;stroke-opacity:1"/>
    </g>
  </g>
  <path d="M 20.001 44.279 L 20.001 64.279 L 40.001 64.279 L 40.001 44.279" id="path-1" style="fill:none;stroke:#000000;stroke-width:3;stroke-linecap:round;stroke-linejoin:round"/>
  <line style="stroke: rgb(0, 0, 0); stroke-width: 2px;" x1="6.41" y1="54.442" x2="20.255" y2="54.442"/>
</svg>
